!! 00000] TT[WS
!!!OTL: Feng mianyi
!!!ARE: Asia, China, Shanxi Zuoquan
!! Ethnic Group: Han
!! WII, 233 (2)
!!!SCT: J0750
!!!YEM: Copyright 1995, estate of Helmut Schaffrath.
**kern
*ICvox
*Ivox
*M2/4
*k[f#]
*G:
{8g
8g
8g
16f#
16e
=1
8d
8d
4d
=2
8a
8dd
8cc
16b
16a
=3
2g}
=4
{8a
8dd
8cc
16b
16dd
=5
8a
8a
8a
8dd
=6
8g
16f#
16e
8d
8r
=7
8b
16a
16b
16d
16e
16d
16B
=8
2d}
==
!!!AGN: Xiaodiao. XÅshi, Xinminge
!!!ONB: ESAC (Essen Associative Code) Database: CHINA
!!!AMT: simple duple
!!!AIN: vox
!!!EED: Helmut Schaffrath
!!!EEV: 1.0
*-
